X:72
T:Morning Dew Voices
R:reel
M:4/4
L:1/8
K:Edor
V:1
|E3B BAFD|EDEB BAFD|E3B BAFA|BcdB AFDF|
|E3B BAFD|EDEB BAFD|E3B BAFA|BcdB AFDF|
|B2eB fBeB|B2eB AFDF|B2eB fBeB|BcdB AFDF|
|B2eB fBeB|B2eB AFDF|Bdeg fdec|d2dA BAFD|
|B2EB GBEB|B2EB AFDF|B2EB GBEB|BcdB AFDF|
|B2EB GBEB|B2EB AFDF|Bdeg fdec|d2dA BAFD|
|BAGF EFGA|B2GB A2GA|BAGF EFGA|BcdB AFDF|
|BAGF EFGA|B2GB A2GA|BAGF EFGA|BcdB AFDF|
|E3B BAFD|EDEB BAFD|E3B BAFA|BcdB AFDF|
|E3B BAFD|EDEB BAFD|E3B BAFA|BcdB AFDF|
V:2
|B2EB GBEB|B2EB AFDF|B2EB GBEB|BcdB AFDF|
|B2EB GBEB|B2EB AFDF|Bdeg fdec|d2dA BAFD|
|BAGF EFGA|B2GB A2GA|BAGF EFGA|BcdB AFDF|
|BAGF EFGA|B2GB A2GA|BAGF EFGA|BcdB AFDF|
|E3B2AFD|EDEB BAFD|E3B2AFA|BcdB AFDF|
|E3B2AFD|EDEB BAFD|E3B2AFA|BcdB AFDF|
|B2eB fBeB|B2eB AFDF|B2eB fBeB|BcdB AFDF|
|B2eB fBeB|B2eB AFDF|Bdeg fdec|d2dA BAFD|
|E3B BAFD|EDEB BAFD|E3B BAFA|BcdB AFDF|
|E3B BAFD|EDEB BAFD|E3B BAFA|BcdB AFDF|
